assets/img/icons/duotone-icons/General/Scissors.svg

<?xml version="1.0" encoding="UTF-8"?>
<svg width="24px" height="24px" viewBox="0 0 24 24" version="1.1" xmlns="http://www.w3.org/2000/svg" xmlns:xlink="http://www.w3.org/1999/xlink">
    <!-- Generator: Sketch 52.2 (67145) - http://www.bohemiancoding.com/sketch -->
    <title>Stockholm-icons / General / Scissors</title>
    <desc>Created with Sketch.</desc>
    <g id="Stockholm-icons-/-General-/-Scissors" stroke="none" stroke-width="1" fill="none" fill-rule="evenodd">
        <rect id="bound" x="0" y="0" width="24" height="24"></rect>
        <path d="M7.70696074,11.6465196 L4.15660341,9.75299572 C3.96167938,9.64903623 3.88793804,9.40674327 3.99189753,9.21181925 C4.08361072,9.03985702 4.28590727,8.95902234 4.47087102,9.0204286 L9.57205231,10.7139738 L7.70696074,11.6465196 Z M12.7322989,14.3267 L16.3686753,12.9703901 L18.6316817,13.7216874 L18.6299527,13.7225513 C20.0084876,14.1925077 21,15.4985341 21,17.0361406 C21,18.9691372 19.4329966,20.5361406 17.5,20.5361406 C15.5670034,20.5361406 14,18.9691372 14,17.0361406 C14,16.3880326 14.176158,15.7810686 14.4832056,15.2605169 L12.7322989,14.3267 Z M17.5,15.5361406 C16.6715729,15.5361406 16,16.2077134 16,17.0361406 C16,17.8645677 16.6715729,18.5361406 17.5,18.5361406 C18.3284271,18.5361406 19,17.8645677 19,17.0361406 C19,16.2077134 18.3284271,15.5361406 17.5,15.5361406 Z" id="Combined-Shape" fill="#335EEA" opacity="0.3"></path>
        <path d="M17.5,9 C18.3284271,9 19,8.32842712 19,7.5 C19,6.67157288 18.3284271,6 17.5,6 C16.6715729,6 16,6.67157288 16,7.5 C16,8.32842712 16.6715729,9 17.5,9 Z M14.4832056,9.27562366 C14.176158,8.75507197 14,8.14810794 14,7.5 C14,5.56700338 15.5670034,4 17.5,4 C19.4329966,4 21,5.56700338 21,7.5 C21,9.03760648 20.0084876,10.3436328 18.6299527,10.8135893 L18.6316817,10.8144531 L4.47087102,15.515712 C4.28590727,15.5771182 4.08361072,15.4962835 3.99189753,15.3243213 C3.88793804,15.1293973 3.96167938,14.8871043 4.15660341,14.7831448 L14.4832056,9.27562366 Z" id="Combined-Shape" fill="#335EEA"></path>
    </g>
</svg>

<svg width="24" height="24" viewBox="0 0 24 24" xmlns="http://www.w3.org/2000/svg"><g fill="none" fill-rule="evenodd"><path d="M0 0h24v24H0z"/><path d="M7.707 11.647l-3.55-1.894a.4.4 0 01.314-.733l5.101 1.694-1.865.933zm5.025 2.68l3.637-1.357 2.263.752h-.002a3.501 3.501 0 01-1.13 6.814 3.5 3.5 0 01-3.017-5.275l-1.75-.934zm4.768 1.21a1.5 1.5 0 100 3 1.5 1.5 0 000-3z" fill="#335EEA" opacity=".3"/><path d="M17.5 9a1.5 1.5 0 100-3 1.5 1.5 0 000 3zm-3.017.276a3.5 3.5 0 114.147 1.538h.002L4.47 15.516a.4.4 0 01-.314-.733l10.326-5.507z" fill="#335EEA"/></g></svg>
